src/Images/ArrowTop.svg

<svg fill="none" height="14" viewBox="0 0 25 14" width="25" xmlns="http://www.w3.org/2000/svg"><path d="m11.2897.789661c.6694-.669419 1.7565-.669419 2.426 0l10.2822 10.282239c.6695.6695.6695 1.7566 0 2.426-.6694.6694-1.7565.6694-2.4259 0l-9.072-9.07195-9.07196 9.06665c-.66942.6694-1.75656.6694-2.42598 0-.669414-.6695-.669414-1.7566 0-2.426l10.28224-10.282294z" fill="#fff"/></svg>

<svg width="25" height="14" viewBox="0 0 25 14" fill="none" xmlns="http://www.w3.org/2000/svg">
<path d="M11.2897 0.789661C11.9591 0.120242 13.0462 0.120242 13.7157 0.789661L23.9979 11.0719C24.6674 11.7414 24.6674 12.8285 23.9979 13.4979C23.3285 14.1673 22.2414 14.1673 21.572 13.4979L12.5 4.42595L3.42804 13.4926C2.75862 14.162 1.67148 14.162 1.00206 13.4926C0.332646 12.8231 0.332646 11.736 1.00206 11.0666L11.2843 0.784306L11.2897 0.789661Z" fill="white"/>
</svg>
